Simply-Blue-Circles/scalable/apps/preferences-web-browser-cookies.svg

<svg xmlns="http://www.w3.org/2000/svg" width="48" height="48" viewBox="0 0 12.7 12.7"><path d="M6.34.07a6.29 6.29 0 0 0-6.29 6.3 6.29 6.29 0 0 0 6.3 6.28 6.29 6.29 0 0 0 6.28-6.29A6.29 6.29 0 0 0 6.34.07zM6.32 1l.01.01a5.4 5.4 0 0 1 5.4 5.4 5.4 5.4 0 0 1-5.4 5.41 5.4 5.4 0 0 1-5.41-5.4A5.4 5.4 0 0 1 6.32 1zm1.75 1.2a3.5 3.42 0 0 1 0 .02 3.5 3.42 0 0 1 .05.34 3.5 3.42 0 0 1 .02.34 3.5 3.42 0 0 1 0 .17 3.5 3.42 0 0 1-.04.34 3.5 3.42 0 0 1-.07.33 3.5 3.42 0 0 1-.1.33 3.5 3.42 0 0 1-.13.31 3.5 3.42 0 0 1-.17.3 3.5 3.42 0 0 1-.2.29 3.5 3.42 0 0 1-.22.26 3.5 3.42 0 0 1-.25.24 3.5 3.42 0 0 1-.27.21 3.5 3.42 0 0 1-.3.19 3.5 3.42 0 0 1-.3.15 3.5 3.42 0 0 1-.33.13 3.5 3.42 0 0 1-.34.09 3.5 3.42 0 0 1-.34.06 3.5 3.42 0 0 1-.35.02 3.4 3.2 0 0 1 .01.26 3.4 3.2 0 0 1 0 .22 3.4 3.2 0 0 1-.05.32 3.4 3.2 0 0 1-.07.31 3.4 3.2 0 0 1-.11.3 3.4 3.2 0 0 1-.14.3 3.4 3.2 0 0 1-.17.27 3.4 3.2 0 0 1-.2.26 3.4 3.2 0 0 1-.22.24 3.4 3.2 0 0 1-.25.22 3.4 3.2 0 0 1-.27.2 3.4 3.2 0 0 1-.29.16 3.4 3.2 0 0 1-.04.02 4.55 4.51 0 0 0 3.35 1.47 4.55 4.51 0 0 0 4.55-4.52A4.55 4.51 0 0 0 8.07 2.2z" fill="#2c89a0"/></svg>

<?xml version="1.0" encoding="UTF-8" standalone="no"?>
<svg
   xmlns:dc="http://purl.org/dc/elements/1.1/"
   xmlns:cc="http://creativecommons.org/ns#"
   xmlns:rdf="http://www.w3.org/1999/02/22-rdf-syntax-ns#"
   xmlns:svg="http://www.w3.org/2000/svg"
   xmlns="http://www.w3.org/2000/svg"
   xmlns:sodipodi="http://sodipodi.sourceforge.net/DTD/sodipodi-0.dtd"
   xmlns:inkscape="http://www.inkscape.org/namespaces/inkscape"
   width="48"
   height="48"
   viewBox="0 0 12.7 12.7"
   version="1.1"
   id="svg6"
   sodipodi:docname="preferences-web-browser-cookies.svg"
   inkscape:version="0.92.4 (5da689c313, 2019-01-14)">
  <metadata
     id="metadata12">
    <rdf:RDF>
      <cc:Work
         rdf:about="">
        <dc:format>image/svg+xml</dc:format>
        <dc:type
           rdf:resource="http://purl.org/dc/dcmitype/StillImage" />
        <dc:title></dc:title>
      </cc:Work>
    </rdf:RDF>
  </metadata>
  <defs
     id="defs10" />
  <sodipodi:namedview
     pagecolor="#ffffff"
     bordercolor="#666666"
     borderopacity="1"
     objecttolerance="10"
     gridtolerance="10"
     guidetolerance="10"
     inkscape:pageopacity="0"
     inkscape:pageshadow="2"
     inkscape:window-width="1087"
     inkscape:window-height="480"
     id="namedview8"
     showgrid="false"
     inkscape:zoom="4.9166667"
     inkscape:cx="2.1355932"
     inkscape:cy="24"
     inkscape:window-x="0"
     inkscape:window-y="25"
     inkscape:window-maximized="0"
     inkscape:current-layer="svg6" />
  <path
     d="M 6.34,0.07 A 6.29,6.29 0 0 0 0.05,6.37 6.29,6.29 0 0 0 6.35,12.65 6.29,6.29 0 0 0 12.63,6.36 6.29,6.29 0 0 0 6.34,0.07 Z M 6.33,1.01 a 5.4,5.4 0 0 1 5.4,5.4 5.4,5.4 0 0 1 -5.4,5.41 A 5.4,5.4 0 0 1 0.92,6.42 5.4,5.4 0 0 1 6.32,1 Z"
     id="path2"
     inkscape:connector-curvature="0"
     style="fill:#2c89a0" />
  <path
     d="m 2.93,9.4 a 4.55,4.51 0 0 0 3.35,1.47 4.55,4.51 0 0 0 4.55,-4.52 4.55,4.51 0 0 0 -2.76,-4.15 3.5,3.42 0 0 1 0,0.02 3.5,3.42 0 0 1 0.05,0.34 3.5,3.42 0 0 1 0.02,0.34 3.5,3.42 0 0 1 0,0.17 A 3.5,3.42 0 0 1 8.1,3.41 3.5,3.42 0 0 1 8.03,3.74 3.5,3.42 0 0 1 7.93,4.07 3.5,3.42 0 0 1 7.8,4.38 3.5,3.42 0 0 1 7.63,4.68 3.5,3.42 0 0 1 7.43,4.97 3.5,3.42 0 0 1 7.21,5.23 3.5,3.42 0 0 1 6.96,5.47 3.5,3.42 0 0 1 6.69,5.68 3.5,3.42 0 0 1 6.39,5.87 3.5,3.42 0 0 1 6.09,6.02 3.5,3.42 0 0 1 5.76,6.15 3.5,3.42 0 0 1 5.42,6.24 3.5,3.42 0 0 1 5.08,6.3 3.5,3.42 0 0 1 4.73,6.32 3.4,3.2 0 0 1 4.74,6.58 3.4,3.2 0 0 1 4.74,6.8 3.4,3.2 0 0 1 4.69,7.12 3.4,3.2 0 0 1 4.62,7.43 3.4,3.2 0 0 1 4.51,7.73 3.4,3.2 0 0 1 4.37,8.03 3.4,3.2 0 0 1 4.2,8.3 3.4,3.2 0 0 1 4,8.56 3.4,3.2 0 0 1 3.78,8.8 3.4,3.2 0 0 1 3.53,9.02 3.4,3.2 0 0 1 3.26,9.22 3.4,3.2 0 0 1 2.97,9.38 3.4,3.2 0 0 1 2.93,9.4 Z"
     id="path4"
     inkscape:connector-curvature="0"
     style="fill:#2c89a0;fill-rule:evenodd" />
</svg>
